assets/svg/logo.svg

<?xml version="1.0" encoding="UTF-8"?>
<svg id="_Слой_1" data-name="Слой 1" xmlns="http://www.w3.org/2000/svg" viewBox="0 0 248.69 248.69">
  <defs>
    <style>
      .cls-1 {
        fill: #293379;
      }

      .cls-2 {
        fill: #7ba8da;
      }
    </style>
  </defs>
  <path class="cls-1" d="M194.44,70.09h-15.83v-15.83c0-29.91-24.34-54.25-54.25-54.25s-54.26,24.34-54.26,54.25v108.82h-15.83c-21.27-.04-38.73-17.54-38.73-38.73,0-19.09,14.16-35.17,32.5-38.22,3.76-.62,6.52-3.85,6.52-7.66,0-4.37-3.57-7.76-7.77-7.76-.43,0-.86.04-1.31.11C19.81,75.1,0,97.61,0,124.35c0,29.71,24.47,54.22,54.25,54.25h15.83v15.83c0,29.91,24.34,54.25,54.26,54.25s54.25-24.34,54.25-54.25v-108.82h15.41c21.36-.19,39.03,17.25,39.16,38.51.11,19.17-14.1,35.39-32.52,38.44-3.76.62-6.52,3.86-6.52,7.66h0c0,4.81,4.33,8.44,9.08,7.66,25.66-4.27,45.49-26.79,45.49-53.53,0-29.7-24.46-54.22-54.25-54.26ZM163.08,194.44c0,21.36-17.37,38.73-38.73,38.73s-38.73-17.38-38.73-38.73V54.25c0-21.36,17.37-38.73,38.73-38.73s38.73,17.38,38.73,38.73v140.18Z"/>
  <g>
    <path class="cls-2" d="M134.1,169.19h-19.51c-9.51,0-17.24-7.73-17.24-17.24v-55.2c0-9.51,7.73-17.24,17.24-17.24h19.51c9.51,0,17.24,7.73,17.24,17.24v55.2c0,9.51-7.73,17.24-17.24,17.24ZM115.29,151.25h18.12v-53.81h-18.12v53.81Z"/>
    <circle class="cls-2" cx="124.35" cy="52.96" r="8.97"/>
    <circle class="cls-2" cx="124.35" cy="195.73" r="8.97"/>
  </g>
</svg>

<svg width="249" height="249" viewBox="0 0 249 249" fill="none" xmlns="http://www.w3.org/2000/svg">
<g clip-path="url(#clip0_15_27)">
<path d="M194.44 70.09H178.61V54.26C178.61 24.35 154.27 0.0100098 124.36 0.0100098C94.45 0.0100098 70.1 24.35 70.1 54.26V163.08H54.27C33 163.04 15.54 145.54 15.54 124.35C15.54 105.26 29.7 89.18 48.04 86.13C51.8 85.51 54.56 82.28 54.56 78.47C54.56 74.1 50.99 70.71 46.79 70.71C46.36 70.71 45.93 70.75 45.48 70.82C19.81 75.1 0 97.61 0 124.35C0 154.06 24.47 178.57 54.25 178.6H70.08V194.43C70.08 224.34 94.42 248.68 124.34 248.68C154.26 248.68 178.59 224.34 178.59 194.43V85.61H194C215.36 85.42 233.03 102.86 233.16 124.12C233.27 143.29 219.06 159.51 200.64 162.56C196.88 163.18 194.12 166.42 194.12 170.22C194.12 175.03 198.45 178.66 203.2 177.88C228.86 173.61 248.69 151.09 248.69 124.35C248.69 94.65 224.23 70.13 194.44 70.09ZM163.08 194.44C163.08 215.8 145.71 233.17 124.35 233.17C102.99 233.17 85.62 215.79 85.62 194.44V54.25C85.62 32.89 102.99 15.52 124.35 15.52C145.71 15.52 163.08 32.9 163.08 54.25V194.43V194.44Z" fill="#62748E"/>
<path d="M134.1 169.19H114.59C105.08 169.19 97.35 161.46 97.35 151.95V96.75C97.35 87.24 105.08 79.51 114.59 79.51H134.1C143.61 79.51 151.34 87.24 151.34 96.75V151.95C151.34 161.46 143.61 169.19 134.1 169.19ZM115.29 151.25H133.41V97.44H115.29V151.25Z" fill="#50A2FF"/>
<path d="M124.35 61.93C129.304 61.93 133.32 57.914 133.32 52.96C133.32 48.006 129.304 43.99 124.35 43.99C119.396 43.99 115.38 48.006 115.38 52.96C115.38 57.914 119.396 61.93 124.35 61.93Z" fill="#50A2FF"/>
<path d="M124.35 204.7C129.304 204.7 133.32 200.684 133.32 195.73C133.32 190.776 129.304 186.76 124.35 186.76C119.396 186.76 115.38 190.776 115.38 195.73C115.38 200.684 119.396 204.7 124.35 204.7Z" fill="#50A2FF"/>
</g>
<defs>
<clipPath id="clip0_15_27">
<rect width="248.69" height="248.69" fill="white"/>
</clipPath>
</defs>
</svg>
